X:175
T:Reel 175
M:4/4
K:Gmaj
L:1/8
ga|bagf dGBA|Bdga bgdg||aaa^g agfd|bagf gaba:||2 (3aba fa gdBc|dggf gabg|dgfg agfg|dgfa gabc'|d'bc'a bgaf|dggf gabc'|d'c'ad' c'ad'c'|d'e'd'b c'abg|fgaf gabg|
